X: 7020
T: Chief's
R: jig
M: 6/8
K: Eminor
|:GFE GFE|GFE D3|GFE GFE|edB AGF|
GFE GFE|GFE D3|EDE GAB|edB AGF:|
E2g gfg|aba agf|e2g gfe|ded BAG|
E2g gfg|aba agf|gfe fed|edB AGF|
E2g gfg|ada agf|e2g gfe|ded BAG|
E2g gfg|aba agf|gfe fed|edB AGF||

